formas-de-pagamento/visa-blue.svg

<svg enable-background="new 0 0 60 40" height="40" viewBox="0 0 60 40" width="60" xmlns="http://www.w3.org/2000/svg"><switch><foreignObject height="1" requiredExtensions="http://ns.adobe.com/AdobeIllustrator/10.0/" width="1"/><g><path d="m60 35c0 2.75-2.25 5-5 5h-50c-2.75 0-5-2.25-5-5v-30c0-2.75 2.25-5 5-5h50c2.75 0 5 2.25 5 5z" fill="#152884"/><g fill="#fff"><path d="m42.747 21.56c-.277-1.325-.548-2.627-.82-3.929-.013-.001-.026-.002-.039-.004-.473 1.305-.946 2.61-1.426 3.932.774.001 1.512.001 2.285.001zm-6.549 3.776c.164-.395.326-.784.489-1.173 1.205-2.879 2.411-5.758 3.616-8.638.235-.562.653-.848 1.267-.846.703.003 1.405.003 2.108-.002.134-.001.194.027.225.175.711 3.428 1.429 6.854 2.146 10.28.014.067.022.136.034.213-.848 0-1.688 0-2.543 0-.096-.461-.199-.915-.282-1.374-.031-.172-.099-.219-.271-.218-1.044.009-2.089.007-3.133.001-.144-.001-.211.044-.257.181-.145.431-.301.858-.464 1.283-.022.058-.108.129-.165.129-.899.008-1.798.005-2.697.004-.018.001-.036-.007-.073-.015z"/><path d="m36.836 14.964c-.16.748-.319 1.487-.478 2.232-.303-.101-.591-.211-.887-.293-.653-.181-1.319-.259-1.989-.129-.241.047-.489.149-.69.289-.445.309-.459.819-.026 1.146.331.25.705.442 1.061.658.443.268.911.501 1.327.806 1.058.776 1.41 1.854 1.051 3.117-.338 1.189-1.173 1.902-2.286 2.331-1.02.393-2.083.449-3.158.362-.676-.055-1.341-.173-1.984-.397-.106-.037-.21-.08-.329-.126.167-.784.332-1.553.492-2.306.457.161.895.345 1.349.469.677.184 1.374.251 2.065.096.269-.06.544-.183.766-.345.415-.304.446-.864.058-1.202-.292-.254-.64-.446-.972-.651-.499-.308-1.036-.563-1.504-.912-1.562-1.165-1.283-2.925-.472-3.979.602-.782 1.428-1.215 2.365-1.447 1.382-.342 2.746-.244 4.088.219.049.018.094.038.153.062z"/><path d="m28.825 14.696c-.073.35-.143.694-.217 1.037-.667 3.119-1.337 6.238-1.997 9.358-.043.203-.112.272-.326.267-.753-.015-1.506-.006-2.259-.006-.069 0-.137 0-.234 0 .071-.334.137-.647.204-.959.682-3.187 1.365-6.374 2.045-9.562.021-.099.043-.156.163-.156.842.005 1.683.003 2.525.004.024.002.048.009.096.017z"/><path d="m11.974 14.679h.205c1.462 0 2.924-.001 4.386 0 .772 0 1.245.394 1.388 1.15.378 1.999.756 3.998 1.134 5.997.002.012.008.024.027.076.041-.09.072-.151.097-.215.9-2.273 1.801-4.546 2.694-6.821.059-.151.134-.193.288-.192.823.007 1.646.003 2.468.003h.215c-.041.107-.072.194-.108.279-1.428 3.409-2.857 6.817-4.283 10.227-.05.12-.106.173-.246.171-.861-.007-1.722-.007-2.582 0-.135.001-.181-.042-.214-.17-.724-2.814-1.456-5.626-2.178-8.441-.109-.423-.34-.716-.735-.904-.792-.378-1.628-.618-2.477-.822-.042-.01-.083-.023-.138-.038.01-.054.018-.102.027-.15.01-.041.019-.084.032-.15z"/><path d="m55 0h-50c-2.75 0-5 2.25-5 5v30c0 2.75 2.25 5 5 5h50c2.75 0 5-2.25 5-5v-30c0-2.75-2.25-5-5-5zm0 1c2.206 0 4 1.794 4 4v30c0 2.206-1.794 4-4 4h-50c-2.206 0-4-1.794-4-4v-30c0-2.206 1.794-4 4-4z" opacity=".25"/></g></g></switch></svg>

<?xml version="1.0" encoding="UTF-8"?>
<svg width="60px" height="40px" viewBox="0 0 60 40" version="1.1" xmlns="http://www.w3.org/2000/svg" xmlns:xlink="http://www.w3.org/1999/xlink">
    <!-- Generator: Sketch 52.4 (67378) - http://www.bohemiancoding.com/sketch -->
    <title>Artboard</title>
    <desc>Created with Sketch.</desc>
    <g id="Artboard" stroke="none" stroke-width="1" fill="none" fill-rule="evenodd">
        <g id="visa-blue">
            <path d="M60,35 C60,37.75 57.75,40 55,40 L5,40 C2.25,40 0,37.75 0,35 L0,5 C0,2.25 2.25,0 5,0 L55,0 C57.75,0 60,2.25 60,5 L60,35 Z" id="Path" fill="#152884"></path>
            <path d="M42.747,21.56 C42.47,20.235 42.199,18.933 41.927,17.631 C41.914,17.63 41.901,17.629 41.888,17.627 C41.415,18.932 40.942,20.237 40.462,21.559 C41.236,21.56 41.974,21.56 42.747,21.56 Z M36.198,25.336 C36.362,24.941 36.524,24.552 36.687,24.163 C37.892,21.284 39.098,18.405 40.303,15.525 C40.538,14.963 40.956,14.677 41.57,14.679 C42.273,14.682 42.975,14.682 43.678,14.677 C43.812,14.676 43.872,14.704 43.903,14.852 C44.614,18.28 45.332,21.706 46.049,25.132 C46.063,25.199 46.071,25.268 46.083,25.345 C45.235,25.345 44.395,25.345 43.54,25.345 C43.444,24.884 43.341,24.43 43.258,23.971 C43.227,23.799 43.159,23.752 42.987,23.753 C41.943,23.762 40.898,23.76 39.854,23.754 C39.71,23.753 39.643,23.798 39.597,23.935 C39.452,24.366 39.296,24.793 39.133,25.218 C39.111,25.276 39.025,25.347 38.968,25.347 C38.069,25.355 37.17,25.352 36.271,25.351 C36.253,25.352 36.235,25.344 36.198,25.336 Z" id="Shape" fill="#FFFFFF" fill-rule="nonzero"></path>
            <path d="M36.836,14.964 C36.676,15.712 36.517,16.451 36.358,17.196 C36.055,17.095 35.767,16.985 35.471,16.903 C34.818,16.722 34.152,16.644 33.482,16.774 C33.241,16.821 32.993,16.923 32.792,17.063 C32.347,17.372 32.333,17.882 32.766,18.209 C33.097,18.459 33.471,18.651 33.827,18.867 C34.27,19.135 34.738,19.368 35.154,19.673 C36.212,20.449 36.564,21.527 36.205,22.79 C35.867,23.979 35.032,24.692 33.919,25.121 C32.899,25.514 31.836,25.57 30.761,25.483 C30.085,25.428 29.42,25.31 28.777,25.086 C28.671,25.049 28.567,25.006 28.448,24.96 C28.615,24.176 28.78,23.407 28.94,22.654 C29.397,22.815 29.835,22.999 30.289,23.123 C30.966,23.307 31.663,23.374 32.354,23.219 C32.623,23.159 32.898,23.036 33.12,22.874 C33.535,22.57 33.566,22.01 33.178,21.672 C32.886,21.418 32.538,21.226 32.206,21.021 C31.707,20.713 31.17,20.458 30.702,20.109 C29.14,18.944 29.419,17.184 30.23,16.13 C30.832,15.348 31.658,14.915 32.595,14.683 C33.977,14.341 35.341,14.439 36.683,14.902 C36.732,14.92 36.777,14.94 36.836,14.964 Z" id="Path" fill="#FFFFFF"></path>
            <path d="M28.825,14.696 C28.752,15.046 28.682,15.39 28.608,15.733 C27.941,18.852 27.271,21.971 26.611,25.091 C26.568,25.294 26.499,25.363 26.285,25.358 C25.532,25.343 24.779,25.352 24.026,25.352 C23.957,25.352 23.889,25.352 23.792,25.352 C23.863,25.018 23.929,24.705 23.996,24.393 C24.678,21.206 25.361,18.019 26.041,14.831 C26.062,14.732 26.084,14.675 26.204,14.675 C27.046,14.68 27.887,14.678 28.729,14.679 C28.753,14.681 28.777,14.688 28.825,14.696 Z" id="Path" fill="#FFFFFF"></path>
            <path d="M11.974,14.679 L12.179,14.679 C13.641,14.679 15.103,14.678 16.565,14.679 C17.337,14.679 17.81,15.073 17.953,15.829 C18.331,17.828 18.709,19.827 19.087,21.826 C19.089,21.838 19.095,21.85 19.114,21.902 C19.155,21.812 19.186,21.751 19.211,21.687 C20.111,19.414 21.012,17.141 21.905,14.866 C21.964,14.715 22.039,14.673 22.193,14.674 C23.016,14.681 23.839,14.677 24.661,14.677 L24.876,14.677 C24.835,14.784 24.804,14.871 24.768,14.956 C23.34,18.365 21.911,21.773 20.485,25.183 C20.435,25.303 20.379,25.356 20.239,25.354 C19.378,25.347 18.517,25.347 17.657,25.354 C17.522,25.355 17.476,25.312 17.443,25.184 C16.719,22.37 15.987,19.558 15.265,16.743 C15.156,16.32 14.925,16.027 14.53,15.839 C13.738,15.461 12.902,15.221 12.053,15.017 C12.011,15.007 11.97,14.994 11.915,14.979 C11.925,14.925 11.933,14.877 11.942,14.829 C11.952,14.788 11.961,14.745 11.974,14.679 Z" id="Path" fill="#FFFFFF"></path>
        </g>
    </g>
</svg>
